X:1
T:Jugend-Lieder
T:Sonett
T:Jugend-Lieder
T:Mathilde Kralik
T:6. Sonett
T:Thibaud I King of Navarre 
T:Creative Commons copyright waiver (CC0 1.0 Universal)
T:Creative Commons copyright waiver (CC0 1.0 Universal)
C:Mathilde Kralik
Z:Thibaud I King of Navarre
Z:Creative Commons copyright waiver (CC0 1.0 Universal)
%%score 1 { 2 | ( 3 4 ) }
L:1/8
Q:1/4=120
M:4/4
K:C
V:1 treble nm="Singstimme\nVoice"
V:2 treble nm="Piano"
V:3 bass 
V:4 bass 
V:1
"^Innig" z8 | z4 z2!mp!!<(! C>D | E2 E2 E2 E E!<)! |!mf!!>(! A3 G/F/ E2!>)!!mp! C!<(!D | %4
w: |Ach *|könnt ich, könn- te ver-|ges- sen * sie! ihr *|
 E2 E2 E E (E/^F/4E/4) ^D/ E/!<)! |!f! (!>!e3 c/A/) ^F2!mp! F2 | ^F2 Fd d^c c B | BA A^G G2 (3AGA | %8
w: schö- nes, lie- bes, lieb- * * li- ches|We- * * sen, den|Blick, die * freund- * li- che|Lip- * pe, * die! viel- * *|
 ^G2 (3AGA G2 (3:2:2d2 d | (^c4 ^C2)!f! C2 | ^C2 C2 C2 z C | E2 ^D3/2 ^C/ C2 C2 | %12
w: leicht ich _ _ möch te ge-|ne- sen! Doch|ach! mein Herz, mein|Herz kann es nie! und|
!<(! ^D2 ^d2!<)! !>!e2 E3/2 E/ | ^D2 ^d2 e4 | z8 | z4 z2!mp! E2 |!<(! E2 E2 E2 E E | E2 E2 E2 E E | %18
w: doch ist's Wahn- sinn, zu|hof- fen Sie!||Und|um sie schwe- ben, gibt|Muth und Le- ben, zu|
 E2 E2!<)!!f! E2 z!ff! E | e6 e2 | (3(^def e4) z2 | z4 z2!p! C>D |!<(! E2 E2 E2 E E!<)! | %23
w: wei- chen nie! zu|wei- chen|nie! _ _ _|Und *|denn, wie kann ich ver-|
!mf!!>(! A3 G/F/ E2!>)!!mp! CD |!<(! E2 E2 E E (E/^F/4E/4) ^D/ E/!<)! |!f! (!>!e3 c/A/) ^F2 F2 | %26
w: ges- sen * sie, ihr *|schö- nes, lie- bes, lie- * * blich- es|We- * * sen, Den|
 ^F2 (Fd) d^c c B | BA A^G G2 z2 | z8 | z8 | z4 z2!mp![Q:1/4=116]!<(! C>D | %31
w: Blick, die * freund- * li- che|Lip- * pe, * die!|||Viel *|
 E2 E2!<)!!mf![Q:1/4=110] !>!e2 c E |[Q:1/4=100]!>(! A3 G/F/!>)![Q:1/4=90] E2 z2 | z8 |] %34
w: lie- ber nim- mer ge-|ne- * * sen!||
V:2
!mp! z2{/B,} !>![F,C]2 z2{/^d} !>![ce]2 | z2{/B,} !>![F,C]2 z2!p!{/^d} !>![ce]2 | %2
 z2{/B,} [F,C]2 z2"^add sharp to D,\nlike bars 23,32\n"!<(!{/^d} [ce]2!<)! | %3
!mp! z2{/B,} [F,C]2 z2{/^d} [ce]2 |"_cresc." z2 !arpeggio![Gce]2 z2 !arpeggio![^FAce]2 | %5
!f! z2 [E^FAc]2!>(! [FAce]2 [EFAc]2!>)! |!p! z2 [D^FB]2 [FBd]2 [DFB]2 | %7
 z2 [D^FB]2 [FBd]2!mf! (3([FA][^E^G][FA] | [^E^G]2) (3([FA][EG][FA] [EG]2) (3([FA][EG][FA] | %9
 [^E^G]6) z2 |!f!{/^D} [A,E]2{/^d} [Ae]2{/D} [^G,E]2{/d} [^Ge]2 | %11
!<(!{/^D} [A,E]2{/^d} [Ae]2!<)!{/^d'} [ae']2{/d} [Ae]2 | %12
!<(!{/^E} [=C^F]2!<)! ([c^f]2 !>![cg]2) ([CG]2 | [C^F]2) ([c^f]2 !>![cg]2)!p! ([C-G]2 | %14
 [C=F]2) ([c-f]2 !>![ce]2) ([C-E]2 | [CF]2) ([c-f]2 [ce]2)!pp! [CE]2 | %16
{/^A,} [E,B,]2{/^A} [EB]2{/^D} [A,E]2{/^d} [Ae]2 | %17
"_cresc."{/E} [A,F]2{/e} [Af]2{/E} [^A,^F]2{/e} [^A^f]2 | %18
!f!{/^F} [B,G]2{/^f} [Bg]2{/[DE]} [B,^G]2{/[de]} [B^g]2 |!ff! [cea]2 [Acf]2 [FAd]2 [A,FB]2 | %20
 (!>!.[B,E]!>!.B .e.b !>!.e'2) !fermata!z2 |!p! z2{/B,} !^![F,C]2 z2{/^d} !^![ce]2 | %22
 z2{/B,} [F,C]2!<(! z2{/^d} [ce]2!<)! | z2{/B,} [F,C]2 z2{/^d} [ce]2 | %24
 z2"_cresc." [Gce]2 z2 [^FAce]2 |!f! z2 [E^FAc]2 [FAce]2 [EFAc]2 |!p! z2 [D^FB]2 [FBd]2 [DFB]2 | %27
 z2 [D=FB]2 [F^Gd]2 (3(!>![Bd][Ac][GB]) | %28
 [^GB]2 (3(!>![df][ce][Bd]) [Bd]2 (3(!>![ac']!>![^gb]!>![fa]) | (!>![f-a]4 [f^g]2) !fermata!z2 | %30
!p! z2{/B,} !^![F,C]2 z2{/^d} !^![ce]2 | z2{/B,} !^![F,C]2 z2{/^d} !^![ce]2 | %32
 z2"_rit."{/B,} !^![F,C]2 z2{/^d} !^![ce]2 | !arpeggio!!fermata![eae']2 z2 z4 |] %34
V:3
{/^D,} !>![A,,E,]2 z2[K:treble]{/B} !>![Ec]2 !>![FA]2 | %1
[K:bass]{/^D,} !>![A,,E,]2 z2[K:treble]{/B} !>![Ec]2 !>![FA]2 | %2
[K:bass]{/^D,} [A,,E,]2 z2[K:treble]{/B} [Ec]2 [FA]2 | %3
[K:bass]{/^D,} [A,,E,]2 z2[K:treble]{/B} [Ec]2 [FA]2 | %4
[K:bass]{/^D,} [G,,E,]2 !arpeggio![G,CE]2{/D,} [^F,,E,]2 !arpeggio![^F,A,CE]2 | %5
 [B,,,B,,]2 [E,^F,A,C]2 [F,A,CE]2 [E,F,A,C]2 | [B,,,B,,]2 [D,^F,B,]2 [F,B,D]2 [D,F,B,]2 | %7
 [B,,,B,,]2 [D,^F,B,]2 [F,B,D]2 (3([B,D]^C[B,D] | ^C2) (3([B,D]C[B,D] C2) (3([B,D]C[B,D] | %9
 ^C2) (^C,2 ^C,,2) z2 |{/^D,} [A,,E,]2{/^D} [A,E]2{/D,} [^G,,E,]2{/D} [^G,E]2 | %11
{/^D,} [^F,,E,]2{/^D} [^F,E]2[K:treble]{/^d} [^Fe]2[K:bass]{/D} [F,E]2 | %12
 [^D,A,]2 ([^DA-]2 [EA]2) ([E,A,]2 | [^D,A,]2) ([^DA-]2 [EA]2) ([E,A,-]2 | %14
 [^D,A,]2) ([^DA-]2 [EA]2) ([E,A,-]2 | [^D,A,]2) ([^DA-]2 [EA]2) [E,A,]2 | %16
{/^A,,} [E,,B,,]2{/^A,} [E,B,]2{/^D,} [A,,E,]2{/^D} [A,E]2 | %17
{/E,} [A,,F,]2{/E} [A,F]2{/E,} [^A,,^F,]2{/E} [^A,^F]2 | %18
{/^F,} [B,,G,]2{/^F} [B,G]2{/[D,E,]} [B,,^G,]2{/[DE]} [B,^G]2 | [CEA]2 [A,CF]2 [F,A,D]2 [D,,F,]2 | %20
!ped! [E,,B,,^G,]6 z2!ped-up! |{/^D,} !^![A,,E,]2 z2[K:treble]{/B} !^![Ec]2 !^![FA]2 | %22
[K:bass]{/^D,} [A,,E,]2 z2[K:treble]{/B} [Ec]2 [FA]2 | %23
[K:bass]{/^D,} [A,,E,]2 z2[K:treble]{/B} [Ec]2 [FA]2 | %24
[K:bass]{/^D,} [G,,E,]2 [G,CE]2{/D,} [^F,,E,]2 [^F,A,CE]2 | %25
 [B,,,B,,]2 [E,^F,A,C]2 [F,A,CE]2 [E,F,A,C]2 | [B,,,B,,]2 [D,^F,B,]2 [F,B,D]2 [D,F,B,]2 | %27
 [B,,,B,,]2 [D,=F,B,]2 [F,B,D]2 (3(!>![B,D][CE][DF]) | %28
 [DF]2 (3(!>![DF][EG][F^G]) [FG]2[K:treble] (3(!>![Bd]!>![ce]!>![df]) | (!>!d4 d2) !fermata!z2 | %30
[K:bass]{/^D,} !^![A,,E,]2 z2[K:treble]{/B} !^![Ec]2 !^![FA]2 | %31
[K:bass]{/^D,} !^![A,,E,]2 z2[K:treble]{/B} !^![Ec]2 !^![FA]2 | %32
[K:bass]{/^D,} !^![A,,E,]2 z2[K:treble]{/B} !^![Ec]2 !^![FA]2 | %33
[K:bass] !arpeggio![A,,E,C]2 z2 z4 |] %34
V:4
 x4[K:treble] x4 |[K:bass] x4[K:treble] x4 |[K:bass] x4[K:treble] x4 |[K:bass] x4[K:treble] x4 | %4
[K:bass] x8 | x8 | x8 | x8 | x8 | x8 | x8 | x4[K:treble] x2[K:bass] x2 | x8 | x8 | x8 | x8 | x8 | %17
 x8 | x8 | x8 | x8 | x4[K:treble] x4 |[K:bass] x4[K:treble] x4 |[K:bass] x4[K:treble] x4 | %24
[K:bass] x8 | x8 | x8 | x8 | x6[K:treble] x2 | (c4 B2) x2 |[K:bass] x4[K:treble] x4 | %31
[K:bass] x4[K:treble] x4 |[K:bass] x4[K:treble] x4 |[K:bass] x8 |] %34

